public/assets/images/shapes/faqs-second.svg

<svg width="1280" height="879" viewBox="0 0 1280 879" fill="none" xmlns="http://www.w3.org/2000/svg">
  <path d="M-42.5 2.13436V1.5H1308.5V872.128C1307.93 871.964 1307.23 871.766 1306.41 871.535C1303.77 870.793 1299.87 869.715 1294.81 868.37C1284.69 865.679 1269.94 861.918 1251.38 857.633C1214.27 849.064 1161.97 838.401 1101.15 830.021C979.565 813.267 823.833 805.62 687.617 842.207C551.915 878.655 385.101 883.259 244.173 872.234C173.719 866.723 109.777 857.309 59.4731 846.033C34.3199 840.395 12.5983 834.296 -4.81229 827.996C-21.8487 821.831 -34.6449 815.512 -42.5 809.315L-42.5 379.999L-42.5 117.186L-42.5 32.0698L-42.5 8.36412V2.13436Z" fill="#FFEDF0" stroke="white" stroke-width="3" />
</svg>

<svg xmlns="http://www.w3.org/2000/svg" width="1280" height="879" fill="none"><path fill="#FFEDF0" stroke="#fff" stroke-width="3" d="M-42.5 2.134V1.5h1351v870.628c-.57-.164-1.27-.362-2.09-.593-2.64-.742-6.54-1.82-11.6-3.165-10.12-2.691-24.87-6.452-43.43-10.737-37.11-8.569-89.41-19.232-150.23-27.612-121.585-16.754-277.317-24.401-413.533 12.186-135.702 36.448-302.516 41.052-443.444 30.027-70.454-5.511-134.396-14.925-184.7-26.201-25.153-5.638-46.875-11.737-64.285-18.037-17.037-6.165-29.833-12.484-37.688-18.681V2.134Z"/></svg>
